src/actions/32/mail-mark-important.svg

<svg xmlns="http://www.w3.org/2000/svg" viewBox="0 0 32 32">
  <defs id="defs3051">
    <style type="text/css" id="current-color-scheme">
      .ColorScheme-Text {
        color:#2e3440;
      }
      .ColorScheme-NegativeText {
        color:#bf616a;
      }
      </style>
  </defs>
  <path style="fill:currentColor;fill-opacity:1;stroke:none" 
     d="M 2,5 2,24.683594 2,27 19,27 19,26 3,26 3,25.111328 3.4296875,24.683594 12.785156,15.541016 16,18.683594 19.214844,15.541016 21,17.285156 21,15.888672 19.929688,14.841797 28.976562,6 29,6 l 0,8 1,0 0,-9 z M 3,6 3.0234375,6 12.070312,14.841797 3,23.707031 Z M 4.453125,6 27.546875,6 16,17.285156 Z"
     class="ColorScheme-Text"
     />
  <path  style="fill:currentColor;fill-opacity:1;stroke:none" 
      d="M 24 15 L 24 23 L 26 23 L 26 15 L 24 15 z M 24 25 L 24 27 L 26 27 L 26 25 L 24 25 z "
     class="ColorScheme-NegativeText"
    />
</svg>

<svg viewBox="0 0 32 32" xmlns="http://www.w3.org/2000/svg">
 <defs>
  <style type="text/css">.ColorScheme-Text {
        color:#2e3440;
      }
      .ColorScheme-NegativeText {
        color:#bf616a;
      }</style>
 </defs>
 <path class="ColorScheme-Text" d="m2 5v19.684 2.3164h17v-1h-16v-0.88867l0.42969-0.42773 9.3555-9.1426 3.2148 3.1426 3.2148-3.1426 1.7852 1.7441v-1.3965l-1.0703-1.0469 9.0469-8.8418h0.023438v8h1v-9zm1 1h0.023438l9.0469 8.8418-9.0703 8.8652zm1.4531 0h23.094l-11.547 11.285z" fill="currentColor"/>
 <path class="ColorScheme-NegativeText" d="m24 15v8h2v-8h-2zm0 10v2h2v-2h-2z" fill="currentColor"/>
</svg>
